X:1
T:HOPE LITTLE'S STRATHSPEY/ Mr. Murray  # 1
M:C
L:1/16
C:William Martin
S:3 X 32 STRATHSPEY 1,2,3
R:Strathspey
N:pg.29
K:A
|:"E7" F \
| "A" EA,3 C3F "/C#" E3e "D" dcBA | "Bm" FD3 A3F "E"E3d ce3 \
| "A"EA,3 C3F "C#" E3e "D" dcBA | "Bm"FA3 "E7"E3G "A"A4 A2  F|!
| "A"EA,3 C3F "Bm" E3e "A/C#" dcBA | "D"FD3 A3F "E"E3d ce3 \
| "F#m"EA,3 C3F "C#m"  E3e dcBA | "D"FA3 "E7"E3G "A"A4 A2|!
|| e \
| "A"a3a "E"gabg "A"a3e c2e2 | "D"f2A2 "E7"g2A2 "A"a3e c2e2 \
| "A"a3a "E/G#"gabg "F#m"a3e c3e | "D"f3d (3a2g2f2 "E7"e4 e2g2 |!
| "A"a3a "E"gabg "A"a3e c2e2 | "D"f2A2 "E7/D"g2A2 "A/C#"a3e c2e2 \
| "Bm"(3a2g2f2  e2d2c2 "A/C#" f2e2d2 "A/C#"c2B2A2 | "D"FA3 "E7"E3G "A"A4A2:|]!
